X:17422
T:Three Little Drummers, The
R:jig
D:Tola Custy and Cyril O'Donohue
Z:Devin McCabe
M:4/4
L:1/8
K:G
A|:BAG GDG|GDG ABc|(A~B2 edc|B/2c/2d B cBA|
!BAG GDG|GDG ABc|(A~B2 edc|1def (fg)d:|2def (fg)f|
!:gdd gdd|gdd dcB|Acc Acc|Acc (Bc)c|
!(A~B2) ~c3|d2d ABc|(A~B2) edc|1def (fg)f:|2def (fg)d||
